X:1
T:Hugo Distler 1908-1942
T:Ein Stündlein wohl vor Tag
%%score [ 1 2 3 4 ]
L:1/8
Q:1/4=80
M:3/4
K:C
V:1 treble nm="Sopran"
V:2 treble nm="Alt"
V:3 treble-8 nm="Tenor"
V:4 bass nm="Bass"
V:1
"^Ruhig" ^c2 | A2 ^F2 | A3 B |"^,""^*)" ^GG x2- | x2 A2 | ^F2 ^G2 |"^," ^C2 x2- | x2 ^cc | %8
w: Die-|weil ich|schla- fend|lag, ein Stünd|lein|wohl vor|Tag, sang|vor dem|
w: Hör|an, was|ich dir|sag'! Dein Schätz|lein|ich ver-|klag': Der-|weil ich|
w: O|weh! nicht|wei- ter|sag'! O still!|nichts|hö- ren|mag! Flieg|ab, flieg|
[M:3/4] d2 d2 BB | ^c2 c2 | A2 A2 | B3 A | (^G2 A2) | ^F4 | E4 |"^," e4 | ^d4 e2 | (^c3 B) A2 | %18
w: Fen- ster auf dem|Baum ein|Schwälb- lein|mir, man|hört *|es|kaum,|ein|Stünd- lein|wohl * vor|
w: die- ses sin- gen|tu', herzt|er ein|Lieb' in|gu \-|ter|Ruh,|ein|Stünd- lein|wohl * vor|
w: ab von mei- nem|Baum! Ach,|Lieb' und|Treu' ist|wie *|ein|Traum,|ein|Stünd- lein|wohl * vor|
"^," ^G2 e2 | ^d2 ^c2 | ^d4 | ^d4 | ^c4- | c4 | ^c4 | ^c4 | ^c4 z2 |] %27
w: Tag, ein|Stünd- lein|wohl|vor|Tag.|||||
w: Tag, ein|Stünd- lein|wohl|vor|Tag.|||||
w: Tag, ein|Stünd- lein|wohl|vor|Tag.|||||
V:2
 ^C2 | ^C2 C2 | E2 ^D2 |"^," ^GG x2- | x2 ^F2 | E2 ^D2 |"^," ^C2 x2- | x2 ^FF |[M:3/4] A2 A2 ^GB | %9
w: Die-|weil ich|schla- fend|lag, ein Stünd|lein|wohl vor|Tag, sang|vor dem|Fen- ster auf dem|
w: Hör|an, was|ich dir|sag'! Dein Schätz|lein|ich ver-|klag': Der-|weil ich|die- ses sin- gen|
w: O|weh! nicht|wei- ter|sag'! O still!|nichts|hö- ren|mag! Flieg|ab, flieg|ab von mei- nem|
 ^F2 E2 | A3 ^G | ^F2 E2 | (^D2 ^C2) | ^D4 | x4- | x2"^," ^F2 | ^G4 B2 | ^G4 ^F2 | x4- | %19
w: Baum ein|Schwälb- lein|mir, man|hört *|es|kaum,|ein|Stünd- lein|wohl vor|Tag,|
w: tu', herzt|er ein|Lieb' in|gu \-|ter|Ruh,|ein|Stünd- lein|wohl vor|Tag,|
w: Baum! Ach,|Lieb' und|Treu' ist|wie *|ein|Traum,|ein|Stünd- lein|wohl vor|Tag,|
 x2"^," ^F2 | ^G4 | B2 x2- | x2 ^F2 | E4 | ^F2 x2- | x2 ^G^F | ^G4 z2 |] %27
w: ein|Stünd-|lein wohl|vor|Tag.||||
w: ein|Stünd-|lein wohl|vor|Tag.||||
w: ein|Stünd-|lein wohl|vor|Tag.||||
V:3
 ^G2 | ^G2 A2 | ^F2 ^G2 |"^," ^E^G x2- | x2 ^c2 | ^c2 ^B2 |"^," ^c2 x2- | x2 ^cc | %8
w: Die-|weil ich|schla- fend|lag, ein Stünd|lein|wohl vor|Tag, sang|vor dem|
w: Hör|an, was|ich dir|sag'! Dein Schätz|lein|ich ver-|klag': Der-|weil ich|
w: O|weh! nicht|wei- ter|sag'! O still!|nichts|hö- ren|mag! Flieg|ab, flieg|
[M:3/4][K:treble-8] A2 A2 ^FF | ^C2 C2 | ^F3 F | ^F2 ^C2 | (^F3 E | ^F2 ^G2 | A2 B2 | ^c2)"^," e2 | %16
w: Fen- ster auf dem|Baum ein|Schwälb- lein|mir, man|hört *||* es|kaum, ein|
w: die- ses sin- gen|tu', herzt|er ein|Lieb' in|gu- *||* ter|Ruh, ein|
w: ab von mei- nem|Baum! Ach,|Lieb' und|Treu' ist|wie *||* ein|Traum, ein|
 B4 B2 | (e3 ^d) ^c2 |"^," B2 e2 | B2 ^c2 | ^c4 | B4 | ^c4- | c4 | ^c4 | ^c4 | ^c4 z2 |] %27
w: Stünd- lein|wohl * vor|Tag, ein|Stünd- lein|wohl|vor|Tag.|||||
w: Stünd- lein|wohl * vor|Tag, ein|Stünd- lein|wohl|vor|Tag.|||||
w: Stünd- lein|wohl * vor|Tag, ein|Stünd- lein|wohl|vor|Tag.|||||
V:4
 E,2 | E,3 ^D, | ^C,2 B,,2 |"^," ^C,C, x2- | x2 ^C2 | A,2 ^F,2 |"^," ^C,2 x2- | x2 A,A, | %8
w: Die-|weil ich|schla- fend|lag, ein Stünd|lein|wohl vor|Tag, sang|vor dem|
w: Hör|an, was|ich dir|sag'! Dein Schätz|lein|ich ver-|klag': Der-|weil ich|
w: O|weh! nicht|wei- ter|sag'! O still!|nichts|hö- ren|mag! Flieg|ab, flieg|
[M:3/4]"^*) Ruhiger Zeilenübergang trotz des Achtelanschlusses." ^F,2 F,2 D,D, | A,2 ^G,2 | %10
w: Fen- ster auf dem|Baum ein|
w: die- ses sin- gen|tu', herzt|
w: ab von mei- nem|Baum! Ach,|
 ^F,2 E,2 | D,2 ^C,2 | (B,,2 A,,2) | B,,4 | E,4 |"^," ^C4 | B,4 ^G,2 | E,4 ^F,2 |"^," ^G,2 ^C2 | %19
w: Schwälb- lein|mir, man|hört *|es|kaum,|ein|Stünd- lein|wohl vor|Tag, ein|
w: er ein|Lieb' in|gu \-|ter|Ruh,|ein|Stünd- lein|wohl vor|Tag, ein|
w: Lieb' und|Treu' ist|wie *|ein|Traum,|ein|Stünd- lein|wohl vor|Tag, ein|
 B,2 A,2 | ^G,4 | ^G,4 | ^C,4- | C,4 | ^C,4 | ^C,4 | ^C,4 z2 |] %27
w: Stünd- lein|wohl|vor|Tag.|||||
w: Stünd- lein|wohl|vor|Tag.|||||
w: Stünd- lein|wohl|vor|Tag.|||||

